src/assets/shapes/logo_180.svg

<svg height="13.1" width="178.95" xmlns="http://www.w3.org/2000/svg"><g fill-rule="evenodd" transform="translate(89.45 6.55)"><path d="m-89.45 3.65h1.45v-7.3h-1.45zm13.1-5.85v5.85h1.45v-7.3h-11.65v7.3h1.45v-5.85zm13.1 5.85v1.45h-10.2v1.45h11.6v-10.2h-11.6v7.3zm-8.75-5.85h8.75v4.4h-8.75zm21.8 0v1.5h-8.7v-1.5zm1.45 5.85v-1.5h-10.15v-1.4h10.15v-4.4h-11.6v7.3zm11.65 0h1.45v-7.3h-11.65v7.3h1.45v-5.85h8.75zm2.9 0h1.45v-7.3h-1.45zm13.05-5.85v1.5h-8.7v-1.5zm1.45 5.85v-1.5h-10.15v-1.4h10.15v-4.4h-11.6v7.3zm13.1-5.85v-1.45h-11.6v7.3h1.45v-5.85zm1.5 5.85h1.45v-7.3h-1.45zm13.3-1.45h-8.7v-1.45h8.7zm1.45 1.45v-7.3h-11.6v1.45h10.15v1.5h-10.15v4.35z" fill="#8f8f8c"/><path d="m21.2-2.2v5.85h1.45v-7.25h-10.15v-2.95h-1.45v10.2h1.45v-5.85zm14.55-1.45h-1.45v5.85h-8.75v-5.85h-1.45v7.3h11.65zm14.5 7.3v-7.3h-13.05v7.3h1.45v-5.85h4.35v5.85h1.45v-5.85h4.35v5.85zm11.65-5.85v1.5h-10.15v4.35h11.6v-7.3h-11.6v1.45zm0 2.95v1.45h-8.75v-1.45zm13.05-2.95v5.85h1.45v-7.3h-11.6v7.3h1.45v-5.85zm13.1 4.4h-8.7v-1.45h8.7zm1.45 1.45v-7.3h-11.6v1.45h10.15v1.5h-10.15v4.35z" fill="#e60d2e"/></g></svg>

<?xml version="1.0" encoding="UTF-8" standalone="no"?>
<svg xmlns:xlink="http://www.w3.org/1999/xlink" height="13.1px" width="178.95px" xmlns="http://www.w3.org/2000/svg">
  <g transform="matrix(1.0, 0.0, 0.0, 1.0, 89.45, 6.55)">
    <path d="M-89.45 3.65 L-88.0 3.65 -88.0 -3.65 -89.45 -3.65 -89.45 3.65 M-76.35 -2.2 L-76.35 3.65 -74.9 3.65 -74.9 -3.65 -86.55 -3.65 -86.55 3.65 -85.1 3.65 -85.1 -2.2 -76.35 -2.2 M-63.25 3.65 L-63.25 5.1 -73.45 5.1 -73.45 6.55 -61.85 6.55 -61.85 -3.65 -73.45 -3.65 -73.45 3.65 -63.25 3.65 M-72.0 -2.2 L-63.25 -2.2 -63.25 2.2 -72.0 2.2 -72.0 -2.2 M-50.2 -2.2 L-50.2 -0.7 -58.9 -0.7 -58.9 -2.2 -50.2 -2.2 M-48.75 3.65 L-48.75 2.15 -58.9 2.15 -58.9 0.75 -48.75 0.75 -48.75 -3.65 -60.35 -3.65 -60.35 3.65 -48.75 3.65 M-37.1 3.65 L-35.65 3.65 -35.65 -3.65 -47.3 -3.65 -47.3 3.65 -45.85 3.65 -45.85 -2.2 -37.1 -2.2 -37.1 3.65 M-34.2 3.65 L-32.75 3.65 -32.75 -3.65 -34.2 -3.65 -34.2 3.65 M-21.15 -2.2 L-21.15 -0.7 -29.85 -0.7 -29.85 -2.2 -21.15 -2.2 M-19.7 3.65 L-19.7 2.15 -29.85 2.15 -29.85 0.75 -19.7 0.75 -19.7 -3.65 -31.3 -3.65 -31.3 3.65 -19.7 3.65 M-6.6 -2.2 L-6.6 -3.65 -18.2 -3.65 -18.2 3.65 -16.75 3.65 -16.75 -2.2 -6.6 -2.2 M-5.1 3.65 L-3.65 3.65 -3.65 -3.65 -5.1 -3.65 -5.1 3.65 M8.2 2.2 L-0.5 2.2 -0.5 0.75 8.2 0.75 8.2 2.2 M9.65 3.65 L9.65 -3.65 -1.95 -3.65 -1.95 -2.2 8.2 -2.2 8.2 -0.7 -1.95 -0.7 -1.95 3.65 9.65 3.65" fill="#8f8f8c" fill-rule="evenodd" stroke="none"/>
    <path d="M21.2 -2.2 L21.2 3.65 22.65 3.65 22.65 -3.6 12.5 -3.6 12.5 -6.55 11.05 -6.55 11.05 3.65 12.5 3.65 12.5 -2.2 21.2 -2.2 M35.75 -3.65 L34.3 -3.65 34.3 2.2 25.55 2.2 25.55 -3.65 24.1 -3.65 24.1 3.65 35.75 3.65 35.75 -3.65 M50.25 3.65 L50.25 -3.65 37.2 -3.65 37.2 3.65 38.65 3.65 38.65 -2.2 43.0 -2.2 43.0 3.65 44.45 3.65 44.45 -2.2 48.8 -2.2 48.8 3.65 50.25 3.65 M61.9 -2.2 L61.9 -0.7 51.75 -0.7 51.75 3.65 63.35 3.65 63.35 -3.65 51.75 -3.65 51.75 -2.2 61.9 -2.2 M61.9 0.75 L61.9 2.2 53.15 2.2 53.15 0.75 61.9 0.75 M74.95 -2.2 L74.95 3.65 76.4 3.65 76.4 -3.65 64.8 -3.65 64.8 3.65 66.25 3.65 66.25 -2.2 74.95 -2.2 M88.05 2.2 L79.35 2.2 79.35 0.75 88.05 0.75 88.05 2.2 M89.5 3.65 L89.5 -3.65 77.9 -3.65 77.9 -2.2 88.05 -2.2 88.05 -0.7 77.9 -0.7 77.9 3.65 89.5 3.65" fill="#e60d2e" fill-rule="evenodd" stroke="none"/>
  </g>
</svg>
